X:1
T:Peace on Earth
T:Peace on Earth
T:Alonzo Burnham Bragdon
T:Mrs. D. C. Doane, 1885
T:Public Domain Courtesy of the Cyber Hymnal™
T:Public Domain Courtesy of the Cyber Hymnal™
C:Alonzo Burnham Bragdon
Z:Public Domain
Z:Courtesy of the Cyber Hymnal™
%%score ( 1 2 ) ( 3 4 )
L:1/8
Q:1/4=93
M:3/4
K:Ab
V:1 treble 
V:2 treble 
V:3 bass 
V:4 bass 
V:1
 EC E | A3 [EA] [CE][EA] | [Ac]4 [Ac]2 | [Ae]3 [Ac] [EB]A | !fermata![GB]3 [GB] [GB][Ac] | %5
w: 1.~Oh, list and|hear thro’ circ- ling|years The|beau- teous strains of|old, Come steal- ing|
w: 2.~Oh, list and|hear how sweet it|sounds With|hap- py notes to-|day, The Christ- mas|
 [Bd]3 [GB] [FA][GB] | [Ac]4 [Ec]2 | [EB]3 [Ec] [=DB][B,D] | !fermata![B,E]3 [EB] [EB][Ec] | %9
w: thro’ the dis- tant|winds On|harps of pur- est|gold; The earth lay|
w: sto- ry’s ev- er|new, And|rap- ture’s in the|lay; O bless- èd|
 [Ed]3 [EB] [EA][EB] | [Ec]4 [GB]2 | A3 [FA] [FG][FA] | !fermata![GB]3 [Ac] [Ac][Bd] | %13
w: closed in si- lent|sleep When|lo, a new- born|king Ap- peared to|
w: strains, still sound them|out Till|Heav- en’s arch- es|ring; The Sav- ior|
 [ce]3 [Ac] [EA][E_G] | [DF]4 [Fd]2 | [Ec]2 z [DB] [DF][DG] | [CA]3 || %17
w: wise men long fore-|told, And|hark! the an- gels|sing.|
w: reigns, ex- alt- ed|high, And|hark! the child- ren|sing.|
"^Refrain" [Ac]2 [Bd] [Ac]2 [GB] | [FA]2 [=EG] F3 | E2 [EA] [EG]2 [CA] | %20
w: Sweet and love- ly|is the strain,|Joy- ful is the|
w: |||
 c3 ([GB][Ac]!fermata![Bd]) | [Ec]2 [Ed] (c B)[=EG] | (BA) [DF] [CE]3 | [DF]2 [EG] (A d)[Ec] | %24
w: sto- ry, * *|Peace on earth, * the|pure * re- frain,|Un- to God * the|
w: ||||
 [DB]3 [CA]3 |] %25
w: glo- ry.|
w: |
V:2
 EC E | A3 x3 | x6 | x5 A | x6 | x6 | x6 | x6 | x6 | x6 | x6 | A3 x3 | x6 | x6 | x6 | x6 | x3 || %17
 x6 | x3 F3 | E2 x4 | (E2 A) x3 | x3 =E2 x | C2 x4 | x3 F2 x | x6 |] %25
V:3
 E,C, E, | A,3 [A,,C] [A,,A,][A,,C] | [A,,E]4 [A,,E]2 | [A,,C]3 [A,,E] [G,,D][A,,C] | %4
 [E,E]3 E, E,E, | E,3 E, E,E, | [A,,E,]4 [A,,A,]2 | [B,,G,]3 [B,,A,] [B,,B,][B,,A,] | %8
 !fermata![E,G,]3 [E,G,] [E,G,][E,A,] | [E,B,]3 [D,G,] [C,A,][E,G,] | A,4 [E,E]2 | %11
 [F,C]3 [F,C] [B,,=D][B,,D] | !fermata![E,E]3 [A,,E,] [A,,E,][A,,E,] | %13
 [A,,A,]3 [A,,A,] [C,A,][C,A,] | [D,A,]4 [D,A,]2 | [E,A,]2 z [E,G,] [E,G,][E,B,] | [A,,A,]3 || %17
 [A,E]2 [G,E] [A,E]2 [E,D] | [F,C]2 [C,C] [D,A,]3 | [C,A,]2 [A,,A,] [E,B,]2 [F,A,] | %20
 [E,A,]3 (B,A,!fermata!G,) | A,2 [G,B,] A,2 [C,A,] | [F,A,]2 [D,A,] [A,,A,]3 | %23
 [D,A,]2 [B,,A,] A,2 [E,A,] | [E,G,]3 [A,,A,]3 |] %25
V:4
 E,C, E, | A,3 x3 | x6 | x6 | x3 E, E,E, | E,3 E, E,E, | x6 | x6 | x6 | x6 | A,4 x2 | x6 | x6 | %13
 x6 | x6 | x6 | x3 || x6 | x6 | x6 | x3 E,3 | A,2 (A,E,) x2 | x6 | x3 (C, D,) x | x6 |] %25

